X: 22
T:Hela'r Wiwer
T:Hunting the Squirrel
M:6/8
L:1/8
Q:130
S:Cadw Twmpath Collection
R:Jig
A:Wales
Z:brian_martin12345@yahoo.com
K:G
D|G2AB2e|d2cB2A|G2B AFD|G2B AFD|
G2AB2e|d2cB2A|G2B AFD|G3G2:||
B|c2ee2g|c2ee2g|c2ee2g|e2g gfe|
1B2dd2c|B2dd2c|edc BcA|G3G2:||
2f2a afd|f2a afd|bge afd|g3g2||
